svg/ionicons/calculator-sharp.svg

<svg xmlns="http://www.w3.org/2000/svg" width="512" height="512" viewBox="0 0 512 512"><path d="M416 48a16 16 0 00-16-16H112a16 16 0 00-16 16v416a16 16 0 0016 16h288a16 16 0 0016-16ZM192 432h-48v-48h48Zm0-80h-48v-48h48Zm0-80h-48v-48h48Zm88 160h-48v-48h48Zm0-80h-48v-48h48Zm0-80h-48v-48h48Zm88 160h-48V304h48Zm0-160h-48v-48h48Zm0-96H144V80h224Z"/></svg>

<svg xmlns="http://www.w3.org/2000/svg" width="512" height="512" viewBox="0 0 512 512"><path d="M416,48a16,16,0,0,0-16-16H112A16,16,0,0,0,96,48V464a16,16,0,0,0,16,16H400a16,16,0,0,0,16-16ZM192,432H144V384h48Zm0-80H144V304h48Zm0-80H144V224h48Zm88,160H232V384h48Zm0-80H232V304h48Zm0-80H232V224h48Zm88,160H320V304h48Zm0-160H320V224h48Zm0-96H144V80H368Z"/></svg>
